svg/system/faceid_fill.svg

<?xml version="1.0" encoding="UTF-8"?>
<svg width="24px" height="24px" viewBox="0 0 24 24" version="1.1" xmlns="http://www.w3.org/2000/svg" xmlns:xlink="http://www.w3.org/1999/xlink">
    <title>faceid_fill</title>
    <g id="页面-1" stroke="none" stroke-width="1" fill="none" fill-rule="evenodd">
        <g id="System" transform="translate(0.000000, -336.000000)" fill-rule="nonzero">
            <g id="faceid_fill" transform="translate(0.000000, 336.000000)">
                 <path d="M24,0 L24,24 L0,24 L0,0 L24,0 Z M12.5934901,23.257841 L12.5819402,23.2595131 L12.5108777,23.2950439 L12.4918791,23.2987469 L12.4918791,23.2987469 L12.4767152,23.2950439 L12.4056548,23.2595131 C12.3958229,23.2563662 12.3870493,23.2590235 12.3821421,23.2649074 L12.3780323,23.275831 L12.360941,23.7031097 L12.3658947,23.7234994 L12.3769048,23.7357139 L12.4804777,23.8096931 L12.4953491,23.8136134 L12.4953491,23.8136134 L12.5071152,23.8096931 L12.6106902,23.7357139 L12.6232938,23.7196733 L12.6232938,23.7196733 L12.6266527,23.7031097 L12.609561,23.275831 C12.6075724,23.2657013 12.6010112,23.2592993 12.5934901,23.257841 L12.5934901,23.257841 Z M12.8583906,23.1452862 L12.8445485,23.1473072 L12.6598443,23.2396597 L12.6498822,23.2499052 L12.6498822,23.2499052 L12.6471943,23.2611114 L12.6650943,23.6906389 L12.6699349,23.7034178 L12.6699349,23.7034178 L12.678386,23.7104931 L12.8793402,23.8032389 C12.8914285,23.8068999 12.9022333,23.8029875 12.9078286,23.7952264 L12.9118235,23.7811639 L12.8776777,23.1665331 C12.8752882,23.1545897 12.8674102,23.1470016 12.8583906,23.1452862 L12.8583906,23.1452862 Z M12.1430473,23.1473072 C12.1332178,23.1423925 12.1221763,23.1452606 12.1156365,23.1525954 L12.1099173,23.1665331 L12.0757714,23.7811639 C12.0751323,23.7926639 12.0828099,23.8018602 12.0926481,23.8045676 L12.108256,23.8032389 L12.3092106,23.7104931 L12.3186497,23.7024347 L12.3186497,23.7024347 L12.3225043,23.6906389 L12.340401,23.2611114 L12.337245,23.2485176 L12.337245,23.2485176 L12.3277531,23.2396597 L12.1430473,23.1473072 Z" id="MingCute" fill-rule="nonzero"></path>
                <path d="M4,15.5 C4.82843,15.5 5.5,16.1716 5.5,17 L5.5,18.5 L7,18.5 C7.82843,18.5 8.5,19.1716 8.5,20 C8.5,20.8284 7.82843,21.5 7,21.5 L5,21.5 C3.61929,21.5 2.5,20.3807 2.5,19 L2.5,17 C2.5,16.1716 3.17157,15.5 4,15.5 Z M20,15.5 C20.7796706,15.5 21.4204457,16.0949121 21.4931332,16.8555442 L21.5,17 L21.5,19 C21.5,20.325472 20.4684531,21.4100378 19.1643744,21.4946823 L19,21.5 L17,21.5 C16.1716,21.5 15.5,20.8284 15.5,20 C15.5,19.2203294 16.0949121,18.5795543 16.8555442,18.5068668 L17,18.5 L18.5,18.5 L18.5,17 C18.5,16.1716 19.1716,15.5 20,15.5 Z M14.4499,13.4997 C15.0415,12.9197 15.9912,12.9292 16.5711,13.5207 C17.1511,14.1123 17.1416,15.062 16.5501,15.6419 C15.3792,16.7898 13.771,17.5001 11.9999993,17.5001 C10.229,17.5001 8.62084,16.7898 7.44993,15.6419 C6.85835,15.062 6.84892,14.1123 7.42885,13.5207 C8.00879,12.9292 8.95849,12.9197 9.55007,13.4997 C10.1829,14.12 11.0456,14.5001 11.9999993,14.5001 C12.9544,14.5001 13.8171,14.12 14.4499,13.4997 Z M9,8 C10.1046,8 11,8.89543 11,10 C11,11.1046 10.1046,12 9,12 C7.89543,12 7,11.1046 7,10 C7,8.89543 7.89543,8 9,8 Z M15,8 C16.1046,8 17,8.89543 17,10 C17,11.1046 16.1046,12 15,12 C13.8954,12 13,11.1046 13,10 C13,8.89543 13.8954,8 15,8 Z M7,2.5 C7.82843,2.5 8.5,3.17157 8.5,4 C8.5,4.77969882 7.90511446,5.420449 7.14446046,5.49313345 L7,5.5 L5.5,5.5 L5.5,7 C5.5,7.82843 4.82843,8.5 4,8.5 C3.22030118,8.5 2.579551,7.90511446 2.50686655,7.14446046 L2.5,7 L2.5,5 C2.5,3.6745184 3.53153766,2.58996147 4.83562452,2.50531769 L5,2.5 L7,2.5 Z M19,2.5 C20.325472,2.5 21.4100378,3.53153766 21.4946823,4.83562452 L21.5,5 L21.5,7 C21.5,7.82843 20.8284,8.5 20,8.5 C19.2203294,8.5 18.5795543,7.90511446 18.5068668,7.14446046 L18.5,7 L18.5,5.5 L17,5.5 C16.1716,5.5 15.5,4.82843 15.5,4 C15.5,3.22030118 16.0949121,2.579551 16.8555442,2.50686655 L17,2.5 L19,2.5 Z" id="形状" fill="#09244B"></path>
            </g>
        </g>
    </g>
</svg>

<svg xmlns="http://www.w3.org/2000/svg" width="24" height="24"><g fill="none" fill-rule="nonzero"><path d="M24 0v24H0V0h24ZM12.593 23.258l-.011.002-.071.035-.02.004-.014-.004-.071-.035c-.01-.004-.019-.001-.024.005l-.004.01-.017.428.005.02.01.013.104.074.015.004.012-.004.104-.074.012-.016.004-.017-.017-.427c-.002-.01-.009-.017-.017-.018Zm.265-.113-.013.002-.185.093-.01.01-.003.011.018.43.005.012.008.007.201.093c.012.004.023 0 .029-.008l.004-.014-.034-.614c-.003-.012-.01-.02-.02-.022Zm-.715.002a.023.023 0 0 0-.027.006l-.006.014-.034.614c0 .012.007.02.017.024l.015-.002.201-.093.01-.008.004-.011.017-.43-.003-.012-.01-.01-.184-.092Z"/><path fill="#09244B" d="M4 15.5A1.5 1.5 0 0 1 5.5 17v1.5H7a1.5 1.5 0 0 1 0 3H5A2.5 2.5 0 0 1 2.5 19v-2A1.5 1.5 0 0 1 4 15.5Zm16 0a1.5 1.5 0 0 1 1.493 1.356L21.5 17v2a2.5 2.5 0 0 1-2.336 2.495L19 21.5h-2a1.5 1.5 0 0 1-.144-2.993L17 18.5h1.5V17a1.5 1.5 0 0 1 1.5-1.5Zm-5.55-2a1.5 1.5 0 0 1 2.1 2.142A6.484 6.484 0 0 1 12 17.5c-1.771 0-3.38-.71-4.55-1.858a1.5 1.5 0 1 1 2.1-2.142c.633.62 1.496 1 2.45 1 .954 0 1.817-.38 2.45-1ZM9 8a2 2 0 1 1 0 4 2 2 0 0 1 0-4Zm6 0a2 2 0 1 1 0 4 2 2 0 0 1 0-4ZM7 2.5a1.5 1.5 0 0 1 .144 2.993L7 5.5H5.5V7a1.5 1.5 0 0 1-2.993.144L2.5 7V5a2.5 2.5 0 0 1 2.336-2.495L5 2.5h2Zm12 0a2.5 2.5 0 0 1 2.495 2.336L21.5 5v2a1.5 1.5 0 0 1-2.993.144L18.5 7V5.5H17a1.5 1.5 0 0 1-.144-2.993L17 2.5h2Z"/></g></svg>
